packages/gestalt/src/icons/compass.svg

<svg width="24" height="24" xmlns="http://www.w3.org/2000/svg"><path fill="#B5B5B5" d="M12.868 12.9A1.25 1.25 0 1 0 11.1 11.13a1.25 1.25 0 0 0 1.77 1.768m2.268 1.134c-.207.517-.62.924-1.139 1.124L5.62 18.38l3.223-8.377c.2-.52.607-.933 1.124-1.139l8.617-3.447-3.447 8.617zm5.348-10.519c-4.686-4.686-12.284-4.686-16.97 0-4.687 4.687-4.687 12.285 0 16.971 4.686 4.686 12.284 4.686 16.97 0 4.686-4.686 4.686-12.284 0-16.97z"/></svg>

<svg width="24" height="24" viewBox="0 0 24 24" xmlns="http://www.w3.org/2000/svg"><path fill="#aeaeae" d="M12.87,12.90 C13.36,12.41 13.36,11.62 12.87,11.13 C12.38,10.64 11.59,10.64 11.10,11.13 C10.61,11.62 10.61,12.41 11.10,12.90 C11.59,13.39 12.38,13.39 12.87,12.90 M15.14,14.03 C14.93,14.55 14.52,14.96 14.00,15.16 L5.62,18.38 L8.84,10.00 C9.04,9.48 9.45,9.07 9.97,8.86 L18.58,5.42 L15.14,14.03 Z M20.49,3.51 C15.80,-1.17 8.20,-1.17 3.51,3.51 C-1.17,8.20 -1.17,15.80 3.51,20.49 C8.20,25.17 15.80,25.17 20.49,20.49 C25.17,15.80 25.17,8.20 20.49,3.51 L20.49,3.51 Z"/></svg>
